X:1
T:Filli mirando il cielo
T:Filli mirando il cielo
T:Giulio Caccini   
T:Source : Le nuove Musiche di G.Caccini detto Romano---Firenze---G/Marescotti---1601. Editor : André Vierendeels (01/11/16). 
T:Notes : Original clefs : C1, F4 Figures in BC are notated in original print m 8 in BC : "C" notated as "C sharp" in original print
T:©
T:©
T:©
T:©
T:©
T:©
T:©
C:Giulio Caccini
Z:©
%%score 1 2
L:1/8
Q:1/4=97
M:2/2
K:F
V:1 treble nm="Soprano" snm="S"
V:2 bass nm="MusicXML Part"
V:1
 d8 | A8 | z4 d4 | B2 G2 B>c B>c | d8 | A8 | z4 d4 | c2 G2 c3 F | G4 G4 | d2 B>A G2 ^F2 | %10
w: Fil-|li,|mi-|ran- do'il cie- * * *||lo,|di-|cea do- glio- so'in|tan- to|Em- pia di cal- de|
 G2 A2 B>c B>c | d6- d/ c/B/A/ | A4- A2- A/B/c | A8 | d6 GG | A2 E2 ^F4- | F4 ^F2 A2 | c6 E2 | %18
w: per l'un bian- * * *|* * co- * *|ve- * * * *|lo,|io mi di-|stil- lo'in pian-|* to ,d'a|mor lan-|
 G2 B2 ^F4 | ^F4 z2 =BB | c6 GG | A4 z2 dd | _e2 cc d2 G2- | G2 c4 B/G/A/B/ | c4- B/A/B/G/ AF | %25
w: gui- sco'e mo-|ro, ne ri-|tro tuo pie-|ta, ne- ri-|tro tuo pie- ta- t'o|_ ciel' o _ _ _|_ _ _ _ _ _ _|
 G8 | F4 z cAF | E>EGE GB G2 | AdAA =B2 c/A/B/c/ | d2 G2 c2 BA | G2 F2 G4 | d6 GG | A4 A4 | %33
w: stel-|le, io son pur|gi- vi- net- ta'el crin ho d'o-|ro, e co- lo rit' e _ _ _|bel- le, sem- bram le-|guan- ce mie|ro- se no-|vel- le,|
 d4 z d c/B/A/G/ | A4 _e4 | dcBA G4 | A8 | d2 cB A2 G2 | ^F2 A2 B2 c2 | d>e c>d B/c/d/B/ c/A/B/G/ | %40
w: ahi, ahi _ _ _ _|_ ahi|qual sa- ra'l tor- men-|to?|Quand' d'ha- vro d'o- ro'il|vol- to, e'l crin|d'ar- * * * * * * * * * * *|
 A8 | G8 | G4- G-G/F/ E/F/G/4A/4B/4c/4 | d4 z d/c/ B/4A/4G/4F/4-F | G4 _e4 | dcBA G4 | A8 | %47
w: gen-|to?|Ahi _ _ _ _ _ _ _ _ _|_ ahi _ _ _ _ _ _|a- hi|qual sa- r'al tor- men-|to?|
 d2 cB A2 G2 | ^F2 A2 B2 c2 | d/c/B/c/ A/B/c/A/ B/A/B/c/ B/A/B/G/ | A8 | G8 | z4 d4 | =B4 c4 | %54
w: Quand' ha- vro d'o- ro'il|vol- to, e'l cri|d'ar- * * * * * * * * * * * * * * *|gen-|to,|quand'|ha- vro|
 d2 A2 B2 G2 | A2 B>c d4- | d4 B2 A/B/c | A2 c2 A2 B2 | ^F>G A2 D2 E2 | %59
w: d'o- ro'il vol- to'e'l|crin _ _ _|_ d'ar- * * gen-|||
 ^F/E/D/E/ F/G/A/B/ A/D/E/F/ G/A/B/c/ | d/c/d/e/ d/e/Td/c/ B/A/G/A/ B/TA/A/4A/4A/4G/4 | %61
w: ||
 F/G/A/F/ G/F/G/E/- E^F G/4F/4G/4F/4G/4F/4E/4F/4 | G8 |] %63
w: |to.|
V:2
 G,,8 | ^F,,8 |"^(#)" F,,8 | G,,8 | G,,8 |"^11 # 10""^9" D,4 D,2 D,2 | %6
"^# 10""^6""^(-natural)" D,4 B,,4 |"^6" C,3 D, E,2 F,2 | C,4 C,,4 | G,,4 G,2 D,>C, | %10
"^6 # 6" B,,2 A,,2 G,,4 | ^F,,4 G,,4 |"^11 # 10""^14" A,,4 A,,2 A,,2 |"^(#)" D,8 | %14
"^6""^-natural" G,,4 =B,,4 | ^C,4 D,4 | D,,4 D,4 |"^-natural" A,,2 A,,2 C,4 | G,,4 D,4 | %19
 D,,4 G,,4 |"^b""^6" C,2 D,2 _E,4 |"^11 # 10""^-natural" D,4 D,2 G,,2 |"^6" C,4 =B,,4 | C,4 F,4 | %24
"^6" A,,2 A,,2 C,4 |"^11 # 10""^14" C,4 C,2 C,2 | F,,4 F,4 | C,4 G,,4 |"^6" D,4 G,2 E,2 | %29
"^11 # 10""^6" G,2 G,2 C,2 D,2 |"^6" E,2 F,2 C,4 | =B,,4 B,,4 |"^11 # 10" D,4 D,2 C,2 | B,,4 B,,4 | %34
 _E,2 D,2 C,4 |"^7     6" G,4 _E,2 E,2 | D,4 D,,4 |"^-natural""^6""^6" D,2 E,2 ^F,2 G,2 | %38
"^6" D,3 C, B,,2 A,,2 | G,,4 G,4 |"^11 # 10""^14""^-natural" D,4 D,2 D,2 |"^-natural" G,,8 | %42
 G,,4 G,4 | D,2 C,2 B,,4 | _E,2 D,2 C,4 |"^7    6" G,4 _E,2 E,2 | D,4 D,,4 | %47
"^-natural""^6""^6" D,2 E,2 ^F,2 G,2 |"^6" D,3 C, B,,2 A,,2 | G,,8 | %50
"^11 # 10""^14""^(-natural)" D,4 D,2 D,2 |"^(-natural)" G,,8 | z4 D,4 |"^6" G,2 G,2 E,4 | %54
 ^F,4 G,4 | D,4 D,2 C,2 | B,,2 A,,2 G,,4 | D,8 | D,,8 | D,8 | D,,8 | D,4 D,,4 | G,,8 |] %63

